!!!COM: Music21
!!!OTL: jig_Old-Man-Dillon
!!!OMV: jig_Old-Man-Dillon
**kern
*clefG2
*k[f#]
*M6/8
=1
16aLL
16gJJ
=
8.eL
16aK
8aJ
8aL
8b
8ddJ
=
8eeL
8dd
8bJ
4cc
8a
=
8bL
8g
8gJ
8dL
8g
8gJ
=
8bL
8dd
8ccJ
8bL
8a
8gJ
=
8.eL
16aK
8aJ
8aL
8b
8ddJ
=
8eeL
8dd
8eeJ
4aa
8gg
!!linebreak:original
=
8eeL
8dd
8ccJ
8bL
8cc
8ddJ
=
8eeL
8cc
8aJ
4a
8ryy
=||
*M6/8
16aLL
16gJJ
=
8.eL
16aK
8aJ
8aL
8b
8ddJ
=
8eeL
8dd
8bJ
4cc
8a
=
8bL
8g
8gJ
8dL
8g
8gJ
!!linebreak:original
=
8bL
8dd
8ccJ
8bL
8a
8gJ
=
8.eL
16aK
8aJ
8aL
8b
8ddJ
=
8eeL
8dd
8eeJ
4aa
8gg
=
8eeL
8dd
8ccJ
8bL
8cc
8ddJ
=
8eeL
8cc
8aJ
4a
8ryy
=||
8gg
2ryy
8ryy
=
8ggL
8ee
8ff#J
4gg
8aa
!!linebreak:original
=
8ggL
8ee
8ff#J
4gg
8dd
=
8.bL
16gK
8gJ
8.dL
16gK
8gJ
=
8bL
8dd
8ccJ
8bL
8a
8gJ
=
8ggL
8ee
8ff#J
4gg
8aa
=
8ggL
8ee
8ff#J
4gg
8dd
=
8.eeL
16ddK
8ccJ
8bL
8cc
8ddJ
=
8.eeL
16ccK
8aJ
4a
8ryy
!!linebreak:original
=||
8gg
2ryy
8ryy
=
8ggL
8ee
8ff#J
4gg
8aa
=
8ggL
8ee
8ff#J
4gg
8dd
=
8.bL
16gK
8gJ
8.dL
16gK
8gJ
=
8bL
8dd
8ccJ
8bL
8a
8gJ
=
8.eL
16aK
8aJ
8aL
8b
8ddJ
=
8eeL
8dd
8eeJ
4aa
8ee
!!linebreak:original
=
8eeL
8dd
8ccJ
8bL
8cc
8ddJ
=
8eeL
8cc
8aJ
4a
8ryy
=||
*-
